X:127
T:Bugale Horn Quick step,The.. JGi.127
M:6/8
L:1/8
Q:3/8=110
S:Joshua Gibbons MS,1823,Tealby,Lincs.
R:quick step
O:Tealby,Lincolnshire
Z:VMP/R.Greig, 2009
K:C
G|c3e2G|c3e2g|c’2c’ c’ba|agg gfe|
f2ga2d|e2fg2c|d2ef2e|dec dcG|
c3e2G|c3e2G|ceg c’ba|agg gfe|
f2ga2d|e2f gab|c’af efd|c3″^dotted in MS”c2:|
|:G|GGG GGG|G2g gfe|g2G GGG|G2f fed|
c2eG2e|c2eG2e|ceg afd|cdc BAG|
c3e2G|c3e2G|ceg c’ba|agg gfe|
f2fa2d|e2f gab|c’af efd|c3c2:|

